!!!OTL: ES ISCH ES MEITSCHI IN DIESEM ZWING
!!!ARE: Europa, Mitteleuropa, Deutschland, Schweiz
!!!SCT: E0827
!!!YEM: Copyright 1995, estate of Helmut Schaffrath.
**kern
*ICvox
*Ivox
*M2/4
*k[b-e-]
*B-:
{16b-
16cc
=1
8dd
8b-
8b-
16cc
16dd
=2
8ee-
8cc
8cc}
{16b-
16dd
=3
8dd
8b-
8b-
16cc
16dd
=4
8ee-
8cc
8cc
8ff
=5
4cc
8r}
{8dd
=6
8ee-
8cc
8dd
8b-
=7
4cc
8cc}
{8dd
=8
8ee-
8cc
8dd
8b-
=9
4cc
8cc}
{8b-
=10
4cc
8b-
8a
=11
4.b-}
==
!!!AGN: Kilt - Lied
!!!ONB: ESAC (Essen Associative Code) Database: ERK2
!!!AMT: simple duple
!!!AIN: vox
!!!EED: Helmut Schaffrath
!!!EEV: 1.0
*-
